src/assets/logout.svg

<svg fill="none" height="24" viewBox="0 0 24 24" width="24" xmlns="http://www.w3.org/2000/svg"><path d="m5 6.64513v-1.09413c0-2.12024 0-3.18036.67965-3.77772.67966-.59737 1.73101-.46131 3.83372-.1892l7.25663.9391c2.4911.32238 3.7367.48357 4.4833 1.33308.7467.84951.7467 2.10544.7467 4.6173v7.05284c0 2.5119 0 3.7678-.7467 4.6173-.7466.8496-1.9922 1.0107-4.4833 1.3331l-7.25663.9391c-2.10271.2721-3.15406.4082-3.83372-.1892-.67965-.5973-.67965-1.6575-.67965-3.7777v-.8764" stroke="#1dc071" stroke-width="2"/><path d="m15 12 .8107-.5855.4228.5855-.4228.5855zm-14 1c-.552285 0-1-.4477-1-1s.447715-1 1-1zm10.4773-7.58549 4.3334 5.99999-1.6214 1.171-4.33331-6.00001zm4.3334 7.17099-4.3334 6-1.62131-1.171 4.33331-6zm-.8107.4145h-14v-2h14z" fill="#1dc071"/></svg>

<svg width="24" height="24" viewBox="0 0 24 24" fill="none" xmlns="http://www.w3.org/2000/svg">
<path d="M5 6.64513V5.551C5 3.43076 5 2.37064 5.67965 1.77328C6.35931 1.17591 7.41066 1.31197 9.51337 1.58408L16.77 2.52318C19.2611 2.84556 20.5067 3.00675 21.2533 3.85626C22 4.70577 22 5.9617 22 8.47356V15.5264C22 18.0383 22 19.2942 21.2533 20.1437C20.5067 20.9933 19.2611 21.1544 16.77 21.4768L9.51337 22.4159C7.41066 22.688 6.35931 22.8241 5.67965 22.2267C5 21.6294 5 20.5692 5 18.449V17.5726" stroke="#1DC071" stroke-width="2"/>
<path d="M15 12L15.8107 11.4145L16.2335 12L15.8107 12.5855L15 12ZM1 13C0.447715 13 0 12.5523 0 12C0 11.4477 0.447715 11 1 11V13ZM11.4773 5.41451L15.8107 11.4145L14.1893 12.5855L9.85599 6.58549L11.4773 5.41451ZM15.8107 12.5855L11.4773 18.5855L9.85599 17.4145L14.1893 11.4145L15.8107 12.5855ZM15 13H1V11H15V13Z" fill="#1DC071"/>
</svg>
